X:148
T: Shigezi
N: C1644
O: China, Hebei, Nanpi
S: IV, 84]
R: Wuge, Hualihu]
M: 2/4
L: 1/32
K: Bb
d2d2d2c2d4d2c2 | b4g4f4f2d2
d2d2d2c2d4d2c2 | b2c2d2g2f4f2d2
d4d2c2d4d2c2 | b4g4f4f2d2
g6f2g4g4 | f2g2b4b4d4 | c6d2f6b2 | g2f2=e4f8
g6b2c6b2 | c16 | d6c2b8
d4d4f6g2 | b6d2c2b2g4 | b8z8
d2d2d2c2d4d2c2 | b4g4f4f2d2
d2d2d2c2d4d2c2 | b2b2g4f4f2d2
d2d2d2c2d4d2c2 | b4g4f4f2d2
g6f2g4g4 | f2g2b4b4d4
d3fg2d2f4f4
d3fb2d2f4f4
b3gb2d2f4f4
b3gb2d2f8
f4f8f2g2 | b16
d2c2c2d2f4f4 | c2f2d2c2b8

